icons/pharmacy_fill.svg

<svg width="48" height="48" viewBox="0 0 48 48" fill="none" xmlns="http://www.w3.org/2000/svg">
<path d="M18.3051 13C18.2482 11.3896 18.2937 9.68491 18.8613 8.35311C19.1597 7.65315 19.5912 7.08664 20.215 6.68645C20.8424 6.28393 21.7421 6 23.0576 6C24.5327 6 25.7625 6.53594 26.6418 7.09422C27.0793 7.37199 27.4203 7.6493 27.6489 7.85414C27.7629 7.95625 27.8479 8.03941 27.9019 8.09429C27.9289 8.12171 27.9481 8.14197 27.9592 8.1539L27.969 8.16441L27.9697 8.16518C28.3363 8.57676 28.9671 8.61412 29.3797 8.24827C29.793 7.88189 29.831 7.24987 29.4646 6.83661L28.73 7.48788C29.4646 6.8366 29.4635 6.83536 29.4635 6.83536L29.4622 6.83389L29.4589 6.83025L29.4499 6.82028C29.4428 6.81246 29.4335 6.80229 29.422 6.78994C29.399 6.76526 29.3672 6.73181 29.3268 6.69086C29.2462 6.60903 29.1312 6.49688 28.9836 6.36461C28.689 6.1007 28.2607 5.75301 27.7138 5.40578C26.6244 4.71406 25.0248 4 23.0576 4C21.4519 4 20.1548 4.34892 19.1351 5.00307C18.1117 5.65956 17.4457 6.57357 17.0215 7.56895C16.2828 9.30221 16.2471 11.3671 16.3035 13H10.9997C10.4474 13 9.99378 13.4497 10.0566 13.9984C10.6725 19.3776 16.217 23.6405 23.1152 23.9784V32H25.1152V23.9656C26.8463 23.8584 28.4889 23.5037 29.9856 22.9467C29.9952 23.0607 30 23.1793 30 23.3029C30 24.0655 29.3771 24.9775 28.0985 25.7694C27.4607 26.1643 26.7331 26.4798 26 26.6925V28.7586C27.108 28.5021 28.2096 28.0531 29.1515 27.4697C30.6229 26.5584 32 25.1219 32 23.3029C32 22.8929 31.9622 22.4878 31.8773 22.0947C35.2441 20.2909 37.5576 17.363 37.9428 13.9984C38.0057 13.4497 37.552 13 36.9997 13H18.3051Z" fill="black"/>
<path d="M30 38.9999C30 40.1652 29.6406 41.1881 28.981 42H31.9998V44H15.9998V42L23.1152 41.9999V38H25.1152V41.914C25.9171 41.7829 26.5506 41.5098 27.0072 41.1511C27.6316 40.6605 28 39.955 28 38.9999C28 38.0448 27.6316 37.3394 27.0072 36.8488C26.3562 36.3373 25.3455 35.9999 24 35.9999C22.4831 35.9999 20.7998 35.8803 19.4689 35.2887C18.7851 34.9849 18.1537 34.5392 17.6964 33.8859C17.2343 33.2257 17 32.4247 17 31.4999C17 30.5752 17.2343 29.7741 17.6964 29.114C18.1537 28.4607 18.7851 28.015 19.4689 27.7111C20.2297 27.373 21.1057 27.189 22 27.0935V29.107C21.3416 29.1898 20.7579 29.3269 20.2811 29.5387C19.8399 29.7349 19.5338 29.9767 19.3349 30.2609C19.1407 30.5382 19 30.9247 19 31.4999C19 32.0752 19.1407 32.4616 19.3349 32.739C19.5338 33.0232 19.8399 33.265 20.2811 33.4611C21.2002 33.8696 22.5168 33.9999 24 33.9999C25.6545 33.9999 27.1438 34.4126 28.2428 35.2761C29.3684 36.1605 30 37.455 30 38.9999Z" fill="black"/>
</svg>

<svg
  xmlns="http://www.w3.org/2000/svg"
  width="24"
  height="24"
  viewBox="0 0 24 24"
  fill="none"
  stroke="currentColor"
  stroke-width="2"
  stroke-linecap="round"
  stroke-linejoin="round"
>
  <path d="M18.305 13c-.057-1.61-.011-3.315.556-4.647.299-.7.73-1.266 1.354-1.667.627-.402 1.527-.686 2.843-.686 1.475 0 2.704.536 3.584 1.094.437.278.778.555 1.007.76a6 6 0 0 1 .31.3l.01.01v.001a1 1 0 0 0 1.496-1.328l-.735.65c.735-.65.733-.652.733-.652v-.001l-.004-.004-.01-.01a3 3 0 0 0-.122-.13 8 8 0 0 0-.343-.325 10 10 0 0 0-1.27-.96C26.624 4.716 25.024 4 23.058 4c-1.606 0-2.903.349-3.923 1.003-1.023.657-1.69 1.57-2.114 2.566-.738 1.733-.774 3.798-.718 5.431H11c-.553 0-1.006.45-.943.998.615 5.38 6.16 9.643 13.058 9.98V32h2v-8.034a17 17 0 0 0 4.87-1.02q.015.172.015.357c0 .762-.623 1.674-1.901 2.466a8.6 8.6 0 0 1-2.099.924v2.066a10.6 10.6 0 0 0 3.151-1.29C30.624 26.56 32 25.123 32 23.304c0-.41-.038-.815-.123-1.208 3.367-1.804 5.68-4.732 6.066-8.097.063-.548-.391-.998-.943-.998z" />
  <path d="M30 39c0 1.165-.36 2.188-1.019 3H32v2H16v-2h7.115v-4h2v3.914c.802-.131 1.436-.404 1.892-.763.625-.49.993-1.196.993-2.151s-.368-1.66-.993-2.151c-.65-.512-1.662-.85-3.007-.85-1.517 0-3.2-.119-4.531-.71-.684-.304-1.315-.75-1.773-1.403-.462-.66-.696-1.461-.696-2.386s.234-1.726.696-2.386c.458-.653 1.09-1.099 1.773-1.403.76-.338 1.637-.522 2.531-.617v2.013c-.658.083-1.242.22-1.719.432-.441.196-.747.438-.946.722-.194.277-.335.664-.335 1.239s.14.962.335 1.239c.199.284.505.526.946.722.92.409 2.236.539 3.719.539 1.654 0 3.144.413 4.243 1.276C29.368 36.16 30 37.455 30 39" />
</svg>
